static/assets/img/icons/theme/weather/cloudy.svg

<svg height="24" viewBox="0 0 24 24" width="24" xmlns="http://www.w3.org/2000/svg"><g fill="none" fill-rule="evenodd"><path d="m0 0h24v24h-24z" opacity="0"/><g fill="#000"><path d="m7.74714567 15.0425758c-1.65304205-1.0685402-2.74714567-2.9277872-2.74714567-5.0425758 0-3.3137085 2.6862915-6 6-6 2.7957591 0 5.1449096 1.91215918 5.8109738 4.5h2.4390262c2.0710678 0 3.75 1.6789322 3.75 3.75s-1.6789322 3.75-3.75 3.75h-9c-.96182105 0-1.83906822-.3621038-2.50285433-.9574242z" opacity=".3"/><path d="m3.74714567 19.0425758c-1.65304205-1.0685402-2.74714567-2.9277872-2.74714567-5.0425758 0-3.3137085 2.6862915-6 6-6 2.79575914 0 5.1449096 1.91215918 5.8109738 4.5h2.4390262c2.0710678 0 3.75 1.6789322 3.75 3.75s-1.6789322 3.75-3.75 3.75h-9c-.96182105 0-1.83906822-.3621038-2.50285433-.9574242z"/></g></g></svg>

<svg width="24px" height="24px" viewBox="0 0 24 24" version="1.1" xmlns="http://www.w3.org/2000/svg" xmlns:xlink="http://www.w3.org/1999/xlink">
    <title>Icon For Cloudy</title>
    <g stroke="none" stroke-width="1" fill="none" fill-rule="evenodd">
        <polygon points="0 0 24 0 24 24 0 24" opacity="0"></polygon>
        <path d="M7.74714567,15.0425758 C6.09410362,13.9740356 5,12.1147886 5,10 C5,6.6862915 7.6862915,4 11,4 C13.7957591,4 16.1449096,5.91215918 16.8109738,8.5 L19.25,8.5 C21.3210678,8.5 23,10.1789322 23,12.25 C23,14.3210678 21.3210678,16 19.25,16 L10.25,16 C9.28817895,16 8.41093178,15.6378962 7.74714567,15.0425758 Z" fill="#000000" opacity="0.3"></path>
        <path d="M3.74714567,19.0425758 C2.09410362,17.9740356 1,16.1147886 1,14 C1,10.6862915 3.6862915,8 7,8 C9.79575914,8 12.1449096,9.91215918 12.8109738,12.5 L15.25,12.5 C17.3210678,12.5 19,14.1789322 19,16.25 C19,18.3210678 17.3210678,20 15.25,20 L6.25,20 C5.28817895,20 4.41093178,19.6378962 3.74714567,19.0425758 Z" fill="#000000"></path>
    </g>
</svg>
